packages/foundations/assets/icons/functional/images/transportation/bus_20.svg

<svg width="20" height="20" viewBox="0 0 20 20" fill="none" xmlns="http://www.w3.org/2000/svg">
<g clip-path="url(#clip0_187_870)">
<path fill-rule="evenodd" clip-rule="evenodd" d="M13.4361 2C14.3999 2 14.9134 2.09916 15.4484 2.38532C15.9486 2.65283 16.3472 3.05136 16.6147 3.55156C16.8391 3.97124 16.9485 4.37763 16.9853 4.99843L18 5V9H17V14.7181C17 15.202 16.9423 15.6307 16.7482 15.96C16.5542 16.2894 16.2899 16.5677 16 16.724V18H13.5V17H6.5V18H4L4.00003 16.7263C3.68135 16.5462 3.42493 16.2838 3.25175 15.96C3.08803 15.6539 3.01807 15.3593 3.00314 14.9171L3 9H2V5L3.01472 4.99843C3.05147 4.37763 3.16087 3.97124 3.38532 3.55156C3.65283 3.05136 4.05136 2.65283 4.55156 2.38532C5.04205 2.123 5.58615 2 6.39444 2.00212L13.4361 2ZM6.4802 12.75H4.9802V14.25H6.4802V12.75ZM15.0885 12.75H13.5885V14.25H15.0885V12.75ZM13.6056 4.00099C13.2345 4.00011 6.71635 4.00099 6.39444 4.00099C6.07254 4.00099 5.64204 4.00099 5.32669 4.2701C5.01134 4.5392 5.00337 5.00213 5.00099 5.39444C4.9994 5.65599 5.00008 7.44061 5.00304 10.7483C6.88173 10.8929 8.54776 10.9651 10 10.9651C11.4522 10.9651 13.1183 10.8929 14.997 10.7483C14.9983 7.45988 14.999 5.67525 14.999 5.39444C14.999 4.97324 14.9905 4.53832 14.6786 4.2701C14.3667 4.00187 13.9766 4.00187 13.6056 4.00099ZM13 5V6.7H7V5H13Z" fill="#1A1C1F"/>
</g>
<defs>
<clipPath id="clip0_187_870">
<rect width="20" height="20" fill="white"/>
</clipPath>
</defs>
</svg>

<svg xmlns="http://www.w3.org/2000/svg" width="20" height="20" fill="none"><g clip-path="url(#a)"><path fill="#1A1C1F" fill-rule="evenodd" d="M13.436 2c.964 0 1.477.1 2.012.385.5.268.9.666 1.167 1.167.224.42.334.826.37 1.446L18 5v4h-1v5.718c0 .484-.058.913-.252 1.242-.194.33-.458.608-.748.764V18h-2.5v-1h-7v1H4v-1.274a1.9 1.9 0 0 1-.748-.766c-.164-.306-.234-.6-.249-1.043L3 9H2V5l1.015-.002c.036-.62.146-1.027.37-1.446.268-.5.666-.9 1.167-1.167.49-.262 1.034-.385 1.842-.383zM6.48 12.75h-1.5v1.5h1.5zm8.609 0h-1.5v1.5h1.5zm-1.483-8.749H6.394c-.321 0-.752 0-1.067.27-.316.268-.324.731-.326 1.123q-.002.393.002 5.354 2.819.217 4.997.217a66 66 0 0 0 4.997-.217l.002-5.354c0-.42-.008-.856-.32-1.124s-.702-.268-1.073-.269M13 5v1.7H7V5z" clip-rule="evenodd"/></g><defs><clipPath id="a"><path fill="#fff" d="M0 0h20v20H0z"/></clipPath></defs></svg>
